public/assets/images/header/01.svg

<svg width="16" height="16" viewBox="0 0 16 16" fill="none" xmlns="http://www.w3.org/2000/svg">
<path d="M0 8C0 12.4046 3.59478 15.9997 7.99947 16H7.99988H8.00012C12.405 15.9999 16 12.4047 16 8C16 3.59503 12.4047 0 8 0C3.60066 0 0 3.59122 0 8ZM0.9375 8C0.9375 6.598 1.34819 5.29016 2.0555 4.19031L2.94569 4.40709C3.10203 4.44619 3.22875 4.55337 3.29328 4.70116C3.35775 4.84872 3.34994 5.01487 3.27187 5.157C2.93275 5.77444 3.13663 6.57109 3.73597 6.97066L5.76137 8.32091L6.227 9.25216C6.38559 9.56931 6.32366 9.95084 6.07294 10.2016L5.79353 10.481C5.61047 10.6641 5.61047 10.9608 5.79353 11.1439L6.35284 11.7032C6.50819 11.8586 6.59372 12.0651 6.59372 12.2847C6.59372 13.2373 6.81072 14.1814 7.22075 15.0192C3.69184 14.6302 0.9375 11.6309 0.9375 8ZM7.06556 8.83294L6.88347 8.46875H6.95184C7.41969 8.46875 7.84028 8.72869 8.0495 9.14713C8.41856 9.88522 9.16044 10.3438 9.98569 10.3438H10.3438V10.8125C10.3438 11.1915 10.1952 11.5469 9.92547 11.8132C9.06025 12.6675 8.41322 13.5212 7.96712 14.4004C7.68494 13.7472 7.53125 13.006 7.53125 12.2848C7.53125 11.8147 7.34819 11.3728 7.01578 11.0404L6.78684 10.8114C7.2805 10.2752 7.39388 9.48953 7.06556 8.83294ZM8.70497 15.0274C9.10462 14.1684 9.72406 13.3296 10.5841 12.4803C11.0337 12.0365 11.2812 11.4442 11.2812 10.8125V9.875C11.2812 9.61613 11.0714 9.40625 10.8125 9.40625H9.98566C9.51781 9.40625 9.09722 9.14631 8.888 8.72787C8.51897 7.98978 7.77706 7.53125 6.95184 7.53125H6.41472L6.27219 7.24616C6.01959 6.741 6.24866 6.12634 6.79366 5.84681C7.24169 5.61703 7.53125 5.11428 7.53125 4.56603V4.25C7.53125 3.99153 7.74153 3.78125 8 3.78125H8.56559C9.52969 3.78125 10.2061 2.83037 9.89778 1.92466L9.63219 1.12825C10.6834 1.37791 11.6442 1.86312 12.4559 2.52494L12.3128 2.95428C12.2899 3.023 12.2507 3.08634 12.1996 3.13753L11.6931 3.64397C11.4275 3.90956 11.2812 4.26272 11.2812 4.63834V5.1875C11.2812 5.96291 11.9121 6.59375 12.6875 6.59375C12.946 6.59375 13.1562 6.80403 13.1562 7.0625V7.77869C13.1562 7.85106 13.1391 7.92356 13.1068 7.98831L12.9466 8.30863C12.7271 8.74775 12.7501 9.25922 13.0082 9.67681C13.2663 10.0944 13.7135 10.3434 14.2044 10.3434H14.6622C13.7685 12.8765 11.4689 14.7522 8.70497 15.0274ZM15.0625 8C15.0625 8.48141 15.0139 8.95166 14.9217 9.40625H14.2044C13.9685 9.40625 13.847 9.25078 13.8057 9.18394C13.7643 9.11709 13.6797 8.93884 13.7851 8.72787L13.9453 8.40756C14.0424 8.21331 14.0938 7.99584 14.0938 7.77869V7.0625C14.0938 6.28709 13.4629 5.65625 12.6875 5.65625C12.429 5.65625 12.2188 5.44597 12.2188 5.1875V4.63831C12.2188 4.51309 12.2675 4.39538 12.356 4.30688L12.8625 3.80047C13.016 3.64694 13.1335 3.45688 13.2022 3.25078L13.2077 3.2345C14.3589 4.49153 15.0625 6.16509 15.0625 8ZM8 0.9375C8.19822 0.9375 8.39444 0.946125 8.58859 0.962219L9.00934 2.22394C9.113 2.52844 8.88713 2.84375 8.56559 2.84375H8C7.22459 2.84375 6.59375 3.47459 6.59375 4.24997V4.566C6.59375 4.76325 6.50216 4.94272 6.36581 5.01266C5.63437 5.38778 5.21809 6.10431 5.23016 6.84006L4.25603 6.19066C4.05812 6.05869 3.98678 5.80291 4.09366 5.60831C4.31275 5.20937 4.33416 4.74197 4.15244 4.32591C3.97063 3.90963 3.61366 3.60772 3.17031 3.49691L2.66734 3.37441C3.96322 1.88244 5.87331 0.9375 8 0.9375Z" fill="black"/>
</svg>

<svg xmlns="http://www.w3.org/2000/svg" width="16" height="16" fill="none" viewBox="0 0 16 16"><path fill="#000" d="M0 8c0 4.405 3.595 8 8 8s8-3.595 8-8-3.595-8-8-8C3.6 0 0 3.591 0 8m.938 0c0-1.402.41-2.71 1.118-3.81l.89.217a.513.513 0 0 1 .326.75c-.34.617-.135 1.414.464 1.814l2.025 1.35.466.931a.82.82 0 0 1-.154.95l-.28.279a.47.47 0 0 0 0 .663l.56.56c.155.155.24.361.24.58 0 .953.218 1.897.628 2.735C3.69 14.63.938 11.631.938 8m6.128.833-.183-.364h.069c.468 0 .888.26 1.098.678a2.15 2.15 0 0 0 1.936 1.197h.358v.469c0 .378-.149.734-.419 1-.865.854-1.512 1.708-1.958 2.587a5.4 5.4 0 0 1-.436-2.115c0-.47-.183-.912-.515-1.245l-.23-.229a1.76 1.76 0 0 0 .28-1.978m1.639 6.194c.4-.859 1.02-1.697 1.88-2.547a2.33 2.33 0 0 0 .696-1.668v-.937a.47.47 0 0 0-.469-.469h-.826a1.22 1.22 0 0 1-1.098-.678A2.15 2.15 0 0 0 6.952 7.53h-.537l-.143-.285c-.252-.505-.023-1.12.522-1.4.448-.229.737-.732.737-1.28V4.25A.47.47 0 0 1 8 3.781h.566c.964 0 1.64-.95 1.332-1.856l-.266-.797a7.04 7.04 0 0 1 2.824 1.397l-.143.43a.5.5 0 0 1-.113.183l-.507.506a1.4 1.4 0 0 0-.412.994v.55c0 .775.631 1.406 1.406 1.406a.47.47 0 0 1 .47.468v.717a.5.5 0 0 1-.05.21l-.16.32c-.22.439-.197.95.061 1.368.258.417.706.666 1.196.666h.458a7.08 7.08 0 0 1-5.957 4.684M15.063 8c0 .481-.05.952-.141 1.406h-.718a.46.46 0 0 1-.398-.222.46.46 0 0 1-.02-.456l.16-.32c.096-.195.148-.412.148-.63v-.715c0-.776-.631-1.407-1.406-1.407a.47.47 0 0 1-.47-.468v-.55c0-.125.05-.243.138-.331l.507-.507c.153-.153.27-.343.34-.55l.005-.015A7.04 7.04 0 0 1 15.062 8M8 .938q.297 0 .589.024l.42 1.262a.468.468 0 0 1-.443.62H8c-.775 0-1.406.63-1.406 1.406v.316c0 .197-.092.377-.228.447-.732.375-1.148 1.091-1.136 1.827l-.974-.65c-.198-.131-.27-.387-.162-.582.219-.399.24-.866.058-1.282a1.45 1.45 0 0 0-.982-.83l-.503-.122A7.05 7.05 0 0 1 8 .938"/></svg>
